src/images/icons/soc-3-yt.svg

<svg width="98" height="40" viewBox="0 0 98 40" fill="none" xmlns="http://www.w3.org/2000/svg">
<g clip-path="url(#clip0)">
<path fill-rule="evenodd" clip-rule="evenodd" d="M9.68514 6.45068L7.09615 16.6125L4.44243 6.45068H0.246094C1.05516 8.79157 1.93973 11.2943 2.74879 13.7862C4.0325 17.2597 4.76605 20.0753 5.08967 21.9307V32.4162H9.0379V21.9307L13.7197 6.45068H9.68514ZM14.8416 14.757C14.0325 15.7279 13.7197 17.2597 13.7197 19.4388V26.2134C13.7197 28.2306 14.0325 29.6761 14.8416 30.7225C15.8124 32.017 17.1824 32.7398 19.0379 32.7398C20.7315 32.7398 22.026 32.0925 22.9861 30.7225C23.7952 29.7624 24.1188 28.2306 24.1188 26.2134V19.4388C24.1188 17.2597 23.7952 15.8034 22.9861 14.757C22.026 13.4626 20.6452 12.7398 19.0379 12.7398C17.1824 12.8261 15.8879 13.4626 14.8416 14.757ZM17.1824 26.9361V18.7916C17.1824 16.9361 17.8297 15.9652 19.0379 15.9652C20.0088 15.9652 20.7315 16.9361 20.7315 18.7916V26.9361C20.7315 28.6298 20.0843 29.6006 19.0379 29.6006C17.8297 29.6006 17.1824 28.5542 17.1824 26.9361ZM33.6334 13.1497V27.907C32.8243 28.8671 32.1015 29.6006 31.2925 29.6006C30.9689 29.6006 30.656 29.277 30.656 28.7916C30.4942 28.6298 30.4942 28.1443 30.4942 27.4971V13.1497H27.0206V28.4679C27.0206 29.7624 27.1824 30.8088 27.3443 31.2943C27.6679 32.2544 28.4769 32.8261 29.6851 32.8261C30.8178 32.8261 32.1878 32.017 33.6334 30.4852V32.5025H37.1069V13.1497H33.6334Z" fill="#003067"/>
<path fill-rule="evenodd" clip-rule="evenodd" d="M69.038 0C61.8643 0 54.6044 0 47.4307 0.809062C44.4426 1.13269 41.9399 3.30097 41.2926 6.45092C40.3325 10.8091 40.3325 15.5663 40.3325 20.0755C40.3325 24.4337 40.3325 29.1909 41.2926 33.5491C41.9399 36.699 44.4426 38.8781 47.4307 39.1909C54.6044 40 61.7025 40 69.038 40C76.2225 40 83.3099 40 90.4943 39.1909C93.6335 38.8781 96.1362 36.699 96.7834 33.5491C97.7543 29.1909 97.7543 24.4337 97.7543 20.0755C97.7543 15.5663 97.7543 10.8091 96.7834 6.45092C96.1362 3.30097 93.6335 1.13269 90.4943 0.809062C83.8816 0 77.0208 0 70.2462 0C69.9226 0 69.3616 0 69.038 0V0ZM70.2462 6.77454V32.3409H73.7198V30.4854C74.8525 32.0173 76.0607 32.6645 77.1826 32.6645C78.7144 32.6645 79.5235 31.8554 80.0089 30.4854C80.1707 29.6764 80.3325 28.3064 80.3325 26.699V19.0291C80.3325 17.1737 80.1707 15.89 80.0089 15.2427C79.5235 13.7109 78.7144 13.0636 77.1826 13.0636C76.0607 13.0636 74.6907 13.7109 73.7198 15.0809V6.77454H70.2462ZM73.7198 28.7918V16.9364C74.2052 16.4509 74.8525 16.1273 75.4134 16.1273C76.3843 16.1273 76.9452 17.0982 76.9452 18.7918V26.9364C76.9452 28.7918 76.4598 29.6009 75.4134 29.6009C74.928 29.6009 74.2052 29.2772 73.7198 28.7918ZM44.4426 6.77454V10.2373H48.6389V32.3409H52.4253V10.3236H56.6216V6.77454H44.4426ZM84.2052 14.9191C83.3962 15.89 83.0725 17.4218 83.0725 19.6009V26.2136C83.0725 28.2309 83.558 29.6764 84.2052 30.7228C85.1653 32.0173 86.7079 32.74 88.4016 32.74C90.257 32.74 91.7025 32.0928 92.7489 30.561C93.0725 30.0863 93.3962 29.2772 93.558 28.5545C93.558 28.2309 93.558 27.4218 93.558 26.2136V25.7282H90.0952C90.0952 27.26 89.9334 27.9072 89.9334 28.069C89.7716 29.0291 89.2861 29.6009 88.4016 29.6009C87.2689 29.6009 86.5461 28.7918 86.5461 26.9364V23.4736H93.558V19.6764C93.558 17.4973 93.2344 16.0518 92.5871 15.0054C91.627 13.8727 90.0952 13.1499 88.4016 13.1499C86.5461 13.1499 85.1653 13.7864 84.2052 14.9191ZM86.5461 18.7918C86.5461 17.0982 87.1826 16.1273 88.4016 16.1273C89.5235 16.1273 90.0952 17.0982 90.0952 18.7918V20.6472H86.5461V18.7918ZM63.7198 13.3118V27.9072C62.9107 29.0291 62.188 29.6009 61.3789 29.6009C61.0553 29.6009 60.7317 29.2772 60.7317 28.7918C60.5698 28.63 60.5698 28.3064 60.5698 27.4973V13.3118H57.1071V28.4682C57.1071 29.7627 57.2689 30.8091 57.4307 31.2945C57.7543 32.2546 58.5526 32.8263 59.7608 32.8263C60.9798 32.8263 62.2635 32.0173 63.7198 30.4854V32.5027H67.1826V13.3118H63.7198Z" fill="#003067"/>
</g>
<defs>
<clipPath id="clip0">
<rect width="98" height="40" fill="white"/>
</clipPath>
</defs>
</svg>

<svg xmlns="http://www.w3.org/2000/svg" width="98" height="40" fill="none" viewBox="0 0 98 40">
	<g fill="#003067" fill-rule="evenodd" clip-path="url(#soc-3-yt-a)" clip-rule="evenodd">
		<path d="M9.685 6.45 7.096 16.614 4.442 6.45H.246c.81 2.34 1.694 4.843 2.503 7.335 1.283 3.474 2.017 6.29 2.34 8.145v10.485h3.949V21.931L13.72 6.45H9.685zm5.157 8.307c-.81.97-1.122 2.503-1.122 4.682v6.774c0 2.018.313 3.463 1.122 4.51.97 1.294 2.34 2.017 4.196 2.017 1.694 0 2.988-.648 3.948-2.018.81-.96 1.133-2.491 1.133-4.509V19.44c0-2.18-.324-3.636-1.133-4.682-.96-1.294-2.34-2.017-3.948-2.017-1.856.086-3.15.723-4.196 2.017zm2.34 12.18v-8.145c0-1.856.648-2.827 1.856-2.827.97 0 1.694.971 1.694 2.827v8.144c0 1.694-.648 2.665-1.694 2.665-1.208 0-1.856-1.047-1.856-2.665zM33.633 13.15v14.757c-.809.96-1.532 1.694-2.34 1.694-.324 0-.637-.324-.637-.81-.162-.161-.162-.647-.162-1.294V13.15h-3.473v15.318c0 1.294.161 2.34.323 2.826.324.96 1.133 1.532 2.341 1.532 1.133 0 2.503-.809 3.948-2.34v2.016h3.474V13.15h-3.474zM69.038 0c-7.174 0-14.434 0-21.607.81-2.988.323-5.491 2.491-6.138 5.64-.96 4.36-.96 9.116-.96 13.626 0 4.358 0 9.115.96 13.473.647 3.15 3.15 5.33 6.138 5.642C54.604 40 61.703 40 69.038 40c7.184 0 14.272 0 21.456-.81 3.14-.312 5.642-2.491 6.29-5.64.97-4.36.97-9.116.97-13.474 0-4.51 0-9.267-.97-13.625-.648-3.15-3.15-5.318-6.29-5.642C83.882 0 77.021 0 70.246 0h-1.208zm1.208 6.775V32.34h3.474v-1.856c1.133 1.532 2.34 2.18 3.463 2.18 1.531 0 2.34-.81 2.826-2.18.162-.809.323-2.179.323-3.786v-7.67c0-1.855-.161-3.139-.323-3.786-.486-1.532-1.295-2.18-2.826-2.18-1.122 0-2.492.648-3.463 2.018V6.775h-3.474zm3.474 22.017V16.936c.485-.485 1.133-.809 1.693-.809.971 0 1.532.971 1.532 2.665v8.144c0 1.856-.485 2.665-1.532 2.665-.485 0-1.208-.324-1.693-.81zM44.443 6.775v3.462h4.196v22.104h3.786V10.324h4.197v-3.55h-12.18zm39.762 8.144c-.809.971-1.132 2.503-1.132 4.682v6.613c0 2.017.485 3.462 1.132 4.509.96 1.294 2.503 2.017 4.197 2.017 1.855 0 3.3-.647 4.347-2.179.324-.475.647-1.284.809-2.006v-2.827h-3.463c0 1.532-.162 2.18-.162 2.341-.161.96-.647 1.532-1.531 1.532-1.133 0-1.856-.81-1.856-2.665v-3.462h7.012v-3.798c0-2.179-.324-3.624-.97-4.67-.961-1.133-2.493-1.856-4.186-1.856-1.856 0-3.237.636-4.197 1.77zm2.341 3.873c0-1.694.637-2.665 1.856-2.665 1.121 0 1.693.971 1.693 2.665v1.855h-3.549v-1.855zm-22.826-5.48v14.595c-.81 1.122-1.532 1.694-2.341 1.694-.324 0-.647-.324-.647-.81-.162-.161-.162-.485-.162-1.294V13.312h-3.463v15.156c0 1.295.162 2.341.324 2.826.323.96 1.122 1.532 2.33 1.532 1.219 0 2.502-.809 3.959-2.34v2.017h3.463V13.312H63.72z"/>
	</g>
	<defs>
		<clipPath id="soc-3-yt-a">
			<path fill="#fff" d="M0 0h98v40H0z"/>
		</clipPath>
	</defs>
</svg>
